src/static/logos/steroids.svg

<svg width="256" height="272" xmlns="http://www.w3.org/2000/svg" preserveAspectRatio="xMidYMid"><path d="M233.255 139.773h-98.27v48.163h97.622c2.159 0 5.831-38.228 5.831-40.388 0 0-1.728-4.103-2.376-5.831-.647-1.728-1.943-1.944-2.807-1.944m-97.622 104.965l-32.828-32.829-41.468-41.683-2.159-2.16-32.829-32.613-10.367-9.287-5.399 11.879-3.456 7.343L0 162.667v7.127c0 6.263 2.808 9.935 5.615 12.958l4.968 4.968c3.887 3.887 9.719 9.719 15.982 16.198l5.4 5.399 35.204 35.205h.216l1.943 1.943c9.935 9.935 18.142 18.142 19.222 19.006 2.808 2.808 6.696 5.616 12.959 5.616h6.911l17.494-7.127 19.222-8.856-7.775-8.639-1.728-1.727M255.068 79.299l-53.562-53.562c-.216-.216-.432-.432-.648-.432-8.423-8.423-17.494-17.278-18.79-18.79C179.261 3.708 175.373.9 169.11.9h-6.912l-17.494 7.127-19.222 8.855 8.207 9.287.864 1.08 59.178 59.394v-.216l26.349 26.349c.648.648 5.4-2.592 11.015-6.911 9.071-6.912 20.734-16.415 21.598-17.278 0 0 1.727-4.104 2.375-5.832 1.08-1.728.432-2.808 0-3.456" fill="#36373A"/><path d="M231.527 51.439c0-13.823-11.231-24.838-24.837-24.838H38.66c-13.823 0-24.837 11.231-24.837 24.838v167.813c0 13.823 11.23 24.838 24.837 24.838h167.814c13.822 0 24.837-11.231 24.837-24.838V51.439h.216" fill="#BEDFEB"/><path d="M142.329 117.743l-35.637-35.852-41.899 99.349-18.358 2.16 60.905 60.906h86.175l3.672-1.728 1.727 1.728h7.776c13.822 0 24.837-11.231 24.837-24.838v-68.896l-83.151-82.935-6.047 50.106" fill="#8AA3A8"/><path d="M180.772 141.717l-46.866-8.639-.648-.216 19.653-20.518c11.231-11.663 10.799-30.237-.863-41.468l-1.296-.864-1.08-1.079c-11.663-11.231-30.021-10.799-41.036.864l-66.305 69.328c-11.23 11.663-10.798 30.237.864 41.467l2.16 2.16c9.935 9.719 24.837 10.799 35.852 3.456l19.87 3.24 21.598 4.535 46.867 8.639c15.766 3.024 30.884-7.559 33.908-23.541l.432-3.024c3.024-16.198-7.343-31.317-23.11-34.34" fill="#FFF"/><path d="M133.042 132.862L119.651 146.9l-33.044 34.556c-1.512 1.728-3.449 3.459-5.393 4.755l41.349 7.755 11.343-61.104h-.864" fill="#F8632F"/><path d="M119.651 147.116l13.391-14.038 19.653-20.518c11.231-11.663 10.799-30.237-.864-41.468l-2.159-2.159c-11.663-11.231-30.021-10.799-41.036.864l-33.044 34.556 44.059 42.763" fill="#D823A5"/><path d="M180.772 141.717l-46.866-8.639-5.616 30.236 75.592 14.039.216-1.512c2.808-15.982-7.559-31.101-23.326-34.124m-94.435 40.09l33.044-34.556-22.03-21.382-53.13 55.722 1.08 1.08c9.481 9.559 24.65 11.058 35.83 3.562 1.944-1.08 3.694-2.698 5.206-4.426" fill="#E4E4E4"/><path d="M107.772 159.643l20.518 3.671 5.399-30.236-.647-.216-13.391 14.254-11.879 12.527" fill="#E2522B"/><path d="M119.651 147.116l13.607-14.254 19.653-20.518c11.231-11.663 10.799-30.237-.863-41.468l-1.296-.864-53.131 55.722 22.03 21.382" fill="#B20D7B"/><path d="M134.297 87.158v40.603a3.872 3.872 0 003.888 3.888h94.813c1.296 0 2.376-.864 2.808-1.728.432-1.296 19.654-47.947 19.654-47.947-.432.864-1.512 1.728-2.808 1.728H138.185c-2.16-.432-3.888 1.296-3.888 3.456M168.894.9h-68.033c-3.24 0-6.047.864-8.423 2.16h-.216c-.216.216-.432.216-.648.432-1.296.648-2.376 1.512-3.672 2.591L50.539 43.447c-.648.432-1.296 1.08-1.728 1.512A97134.707 97134.707 0 015.183 88.37C2.592 91.178 0 95.714 0 101.113v68.465c0-3.888 1.296-8.855 5.183-12.743l14.471-14.47S152.48 9.755 156.151 5.867C160.039 2.196 165.006.9 168.894.9m86.822 188.764c-.432-1.296-19.654-47.947-19.654-47.947 0 .216.216.432.216.648-.216-.432-.216-.648-.216-.648.432.864.216 2.159-.647 3.023a213802.61 213802.61 0 01-45.788 45.572c-29.588 29.372-73.216 73-75.591 75.591-3.888 3.672-8.639 5.184-12.743 5.184h68.249c5.615 0 10.151-2.592 12.742-5.184 0 0 30.237-30.236 42.98-43.195l30.02-30.021c.864-.864.864-2.16.432-3.023" fill="#00B6FF"/></svg>

<?xml version="1.0" encoding="UTF-8" standalone="no"?>
<svg width="256px" height="272px" viewBox="0 0 256 272" version="1.1" xmlns="http://www.w3.org/2000/svg" xmlns:xlink="http://www.w3.org/1999/xlink" preserveAspectRatio="xMidYMid">
	<g>
		<path d="M233.255,139.773 L134.985,139.773 L134.985,187.936 L232.607,187.936 C234.766,187.936 238.438,149.708 238.438,147.548 C238.438,147.548 236.71,143.445 236.062,141.717 C235.415,139.989 234.119,139.773 233.255,139.773" fill="#36373A"></path>
		<path d="M135.633,244.738 L102.805,211.909 L61.337,170.226 L59.178,168.066 L26.349,135.453 L15.982,126.166 L10.583,138.045 L7.127,145.388 L0,162.667 L0,169.794 C0,176.057 2.808,179.729 5.615,182.752 C6.047,183.184 7.775,184.912 10.583,187.72 C14.47,191.607 20.302,197.439 26.565,203.918 C26.565,203.918 28.725,206.078 31.965,209.317 C48.811,226.164 67.169,244.522 67.169,244.522 L67.385,244.522 C68.033,245.17 68.681,245.817 69.328,246.465 C79.263,256.4 87.47,264.607 88.55,265.471 C91.358,268.279 95.246,271.087 101.509,271.087 L108.42,271.087 L125.914,263.96 L145.136,255.104 L137.361,246.465 L135.633,244.738" fill="#36373A"></path>
		<path d="M255.068,79.299 L201.506,25.737 C201.29,25.521 201.074,25.305 200.858,25.305 C192.435,16.882 183.364,8.027 182.068,6.515 C179.261,3.708 175.373,0.9 169.11,0.9 L162.198,0.9 L144.704,8.027 L125.482,16.882 L133.689,26.169 L134.553,27.249 L193.731,86.643 L193.731,86.427 L220.08,112.776 C220.728,113.424 225.48,110.184 231.095,105.865 C240.166,98.953 251.829,89.45 252.693,88.587 C252.693,88.587 254.42,84.483 255.068,82.755 C256.148,81.027 255.5,79.947 255.068,79.299" fill="#36373A"></path>
		<path d="M231.527,51.439 C231.527,37.616 220.296,26.601 206.69,26.601 L38.66,26.601 C24.837,26.601 13.823,37.832 13.823,51.439 L13.823,219.252 C13.823,233.075 25.053,244.09 38.66,244.09 L206.474,244.09 C220.296,244.09 231.311,232.859 231.311,219.252 L231.311,51.439 L231.527,51.439" fill="#BEDFEB"></path>
		<path d="M142.329,117.743 L106.692,81.891 L64.793,181.24 L46.435,183.4 L107.34,244.306 L193.515,244.306 L197.187,242.578 L198.914,244.306 L206.69,244.306 C220.512,244.306 231.527,233.075 231.527,219.468 L231.527,150.572 L148.376,67.637 L142.329,117.743" fill="#8AA3A8"></path>
		<path d="M180.772,141.717 L133.906,133.078 L133.258,132.862 L152.911,112.344 C164.142,100.681 163.71,82.107 152.048,70.876 L150.752,70.012 L149.672,68.933 C138.009,57.702 119.651,58.134 108.636,69.797 L42.331,139.125 C31.101,150.788 31.533,169.362 43.195,180.592 L45.355,182.752 C55.29,192.471 70.192,193.551 81.207,186.208 L101.077,189.448 L122.675,193.983 L169.542,202.622 C185.308,205.646 200.426,195.063 203.45,179.081 L203.882,176.057 C206.906,159.859 196.539,144.74 180.772,141.717" fill="#FFFFFF"></path>
		<path d="M133.042,132.862 L119.651,146.9 L86.607,181.456 C85.095,183.184 83.158,184.915 81.214,186.211 L122.563,193.966 L133.906,132.862 L133.042,132.862" fill="#F8632F"></path>
		<path d="M119.651,147.116 L133.042,133.078 L152.695,112.56 C163.926,100.897 163.494,82.323 151.831,71.092 L149.672,68.933 C138.009,57.702 119.651,58.134 108.636,69.797 L75.592,104.353 L119.651,147.116" fill="#D823A5"></path>
		<path d="M180.772,141.717 L133.906,133.078 L128.29,163.314 L203.882,177.353 L204.098,175.841 C206.906,159.859 196.539,144.74 180.772,141.717" fill="#E4E4E4"></path>
		<path d="M86.337,181.807 L119.381,147.251 L97.351,125.869 L44.221,181.591 L45.301,182.671 C54.782,192.23 69.951,193.729 81.131,186.233 C83.075,185.153 84.825,183.535 86.337,181.807" fill="#E4E4E4"></path>
		<path d="M107.772,159.643 L128.29,163.314 L133.689,133.078 L133.042,132.862 L119.651,147.116 L107.772,159.643" fill="#E2522B"></path>
		<path d="M119.651,147.116 L133.258,132.862 L152.911,112.344 C164.142,100.681 163.71,82.107 152.048,70.876 L150.752,70.012 L97.621,125.734 L119.651,147.116" fill="#B20D7B"></path>
		<path d="M134.297,87.158 L134.297,127.761 C134.297,129.921 136.025,131.649 138.185,131.649 L190.451,131.649 L212.913,131.649 L231.703,131.649 L232.998,131.649 C234.294,131.649 235.374,130.785 235.806,129.921 C236.238,128.625 255.46,81.974 255.46,81.974 C255.028,82.838 253.948,83.702 252.652,83.702 L187.859,83.702 L138.185,83.702 C136.025,83.27 134.297,84.998 134.297,87.158" fill="#00B6FF"></path>
		<path d="M168.894,0.9 L100.861,0.9 C97.621,0.9 94.814,1.764 92.438,3.06 C92.438,3.06 92.438,3.06 92.222,3.06 C92.006,3.276 91.79,3.276 91.574,3.492 C90.278,4.14 89.198,5.004 87.902,6.083 C86.175,7.811 68.896,25.089 50.539,43.447 C49.891,43.879 49.243,44.527 48.811,44.959 C45.139,48.631 5.183,88.37 5.183,88.37 C2.592,91.178 0,95.714 0,101.113 L0,169.578 C0,165.69 1.296,160.723 5.183,156.835 C5.831,156.187 11.447,150.572 19.654,142.365 C19.654,142.365 152.48,9.755 156.151,5.867 C160.039,2.196 165.006,0.9 168.894,0.9" fill="#00B6FF"></path>
		<path d="M255.716,189.664 C255.284,188.368 236.062,141.717 236.062,141.717 C236.062,141.933 236.278,142.149 236.278,142.365 C236.062,141.933 236.062,141.717 236.062,141.717 C236.494,142.581 236.278,143.876 235.415,144.74 C233.471,146.684 189.627,190.312 189.627,190.312 C160.039,219.684 116.411,263.312 114.036,265.903 C110.148,269.575 105.397,271.087 101.293,271.087 L169.542,271.087 C175.157,271.087 179.693,268.495 182.284,265.903 C182.284,265.903 212.521,235.667 225.264,222.708 C225.264,222.708 254.42,193.551 255.284,192.687 C256.148,191.823 256.148,190.527 255.716,189.664" fill="#00B6FF"></path>
	</g>
</svg>
